X:1
T: Miss Campbell's Reel
C:Robert Mackintosh
R:Reel
Q: 232
K:Cm
M:4/4
L:1/8
|:G|E2 CG EG cG|BF GE DB, DF|ED CD EF Gc|ec d=B cC CG|
E2 CG EG cG|BF GE DB, DF|EC EG =B,D GD|EG FD EC Cg|
ec gc g2 fe|dB fB gB fd|ec ge dB fd|e1/2d1/2c d1/2c1/2=B cC Cg|
ec gc g2 fe|dB fB de fg|ec Gc BG EG|AF DG EC C:|
